icons/pregnant_32w.svg

<svg width="48" height="48" viewBox="0 0 48 48" fill="none" xmlns="http://www.w3.org/2000/svg">
<path fill-rule="evenodd" clip-rule="evenodd" d="M16.3999 40.3168C16.9006 40.55 17.4955 40.3332 17.7287 39.8326C17.9619 39.3319 17.745 38.737 17.2444 38.5039C14.3758 37.1677 11.9678 35.011 10.325 32.3063C8.68218 29.6016 7.87827 26.4706 8.01493 23.309C8.1516 20.1475 9.2227 17.0974 11.0928 14.5446C11.9379 13.391 12.929 12.3623 14.036 11.4813C14.1751 11.6629 14.3142 11.8413 14.449 12.0142C14.5646 12.1625 14.6775 12.3074 14.784 12.446C15.2027 12.991 15.5422 13.4638 15.7688 13.8945C15.9973 14.3289 16.0556 14.6194 16.037 14.8168C16.0223 14.9726 15.9493 15.1974 15.587 15.4955L14.8397 16.1103C14.2504 16.5951 13.8792 17.2101 13.7772 17.8854C13.6759 18.5554 13.8528 19.2014 14.2086 19.7228C14.9233 20.7704 16.322 21.3002 17.8157 20.9022C17.9486 20.8668 18.0451 20.8456 18.1145 20.8332C18.1548 20.8986 18.2049 20.9862 18.2769 21.1136L18.4556 21.5097C18.2569 21.5245 18.057 21.5593 17.8584 21.6154L14.3558 22.6062C12.7615 23.0572 11.8347 24.7152 12.2857 26.3095C12.7367 27.9038 14.3947 28.8306 15.989 28.3797L16.8673 28.1312L17.8993 30.7853C18.3119 31.8465 19.2898 32.5827 20.4238 32.6858C23.7749 32.9904 26.4898 31.8644 28.2684 30.1152C29.1351 29.2628 29.7893 28.2507 30.1587 27.1841C30.5115 26.1653 30.6843 24.841 30.1921 23.5454C29.7079 22.2706 28.4247 21.4828 27.0688 21.6278L26.4206 21.6971L26.0149 20.2574C25.5654 18.6627 23.9083 17.7343 22.3136 18.1837C21.1926 18.4997 20.4008 19.4124 20.1854 20.4806L20.0629 20.209L20.0212 20.135C19.9231 19.961 19.8108 19.7618 19.6925 19.5945C19.5594 19.4064 19.3643 19.1768 19.0662 19.0152C18.4636 18.6885 17.8017 18.8361 17.3008 18.9696C16.5451 19.171 16.0509 18.8745 15.8607 18.5957C15.764 18.454 15.7354 18.3118 15.7547 18.1842C15.7732 18.0621 15.8484 17.8703 16.1104 17.6548L16.8576 17.04C17.5409 16.4779 17.9535 15.7964 18.0281 15.0044C18.0988 14.254 17.8501 13.5551 17.5388 12.9634C17.2256 12.3679 16.7927 11.7777 16.3699 11.2275C16.245 11.0648 16.1212 10.906 15.999 10.7492C15.8904 10.61 15.7831 10.4722 15.6774 10.3349C16.5736 9.78908 17.5256 9.33013 18.5212 8.96729C21.4944 7.88368 24.7221 7.70606 27.7962 8.45688C30.8704 9.20771 33.6528 10.8533 35.7918 13.1854C37.9307 15.5176 39.33 18.4317 39.8127 21.5592C40.2955 24.6866 39.84 27.887 38.5039 30.7556C38.2707 31.2563 38.4875 31.8511 38.9881 32.0843C39.4888 32.3175 40.0837 32.1007 40.3168 31.6001C41.82 28.3729 42.3324 24.7725 41.7893 21.2541C41.2462 17.7357 39.672 14.4573 37.2657 11.8336C34.8594 9.20992 31.7292 7.35867 28.2708 6.51399C24.8124 5.66931 21.1811 5.86914 17.8363 7.08821C14.4915 8.30727 11.5832 10.4908 9.47939 13.3627C7.37553 16.2346 6.17055 19.6659 6.0168 23.2226C5.86305 26.7794 6.76746 30.3018 8.61564 33.3446C10.4638 36.3873 13.1728 38.8137 16.3999 40.3168ZM22.8561 20.1087C23.3877 19.9589 23.9401 20.2684 24.0899 20.8L24.7247 23.0524C24.857 23.5218 25.3086 23.8273 25.7935 23.7755L27.2814 23.6164C27.7334 23.5681 28.1611 23.8307 28.3225 24.2556C28.596 24.9757 28.5241 25.7923 28.2688 26.5296C28.0086 27.281 27.5318 28.0345 26.8661 28.6893C25.5198 30.0132 23.3896 30.9471 20.6048 30.694C20.2268 30.6596 19.9009 30.4142 19.7633 30.0605L18.4019 26.5591C18.2151 26.0787 17.6937 25.819 17.1977 25.9593L15.4446 26.4552C14.9132 26.6055 14.3605 26.2966 14.2102 25.7651C14.0598 25.2337 14.3688 24.681 14.9002 24.5307L18.4028 23.5399C18.8988 23.3996 19.4202 23.6593 19.607 24.1397L21.1363 28.0727C21.298 28.4886 21.7158 28.747 22.1601 28.706C23.278 28.6029 24.1716 28.2395 24.8487 27.7708C25.213 27.5187 25.368 27.0569 25.2295 26.636C25.0911 26.2152 24.6922 25.9356 24.2493 25.949C23.7948 25.9628 23.3831 25.6649 23.2579 25.2206L22.1649 21.3425C22.0151 20.8109 22.3245 20.2585 22.8561 20.1087Z" fill="black"/>
<path d="M35.2109 36.1315C35.1383 35.6957 35.4327 35.2835 35.8685 35.2109C36.3043 35.1383 36.7165 35.4327 36.7891 35.8685L37.2532 38.6528L37.8054 37.6864C37.9478 37.4372 38.2129 37.2833 38.5 37.2833C38.7871 37.2833 39.0522 37.4372 39.1946 37.6864L39.7468 38.6528L40.2109 35.8685C40.2835 35.4327 40.6957 35.1383 41.1315 35.2109C41.5673 35.2835 41.8618 35.6957 41.7891 36.1315L40.9558 41.1315C40.9002 41.4653 40.6406 41.7279 40.3075 41.7875C39.9745 41.8471 39.6399 41.6907 39.4721 41.3969L38.5 39.6958L37.5279 41.3969C37.3601 41.6907 37.0255 41.8471 36.6925 41.7875C36.3594 41.7279 36.0998 41.4653 36.0442 41.1315L35.2109 36.1315Z" fill="black"/>
<path d="M25.0455 36.9861C25.1699 37.0875 25.2 37.1851 25.2 37.25C25.2 37.3149 25.1699 37.4125 25.0455 37.5139C24.9195 37.6167 24.7177 37.7 24.4673 37.7H23.4455C23.0037 37.7 22.6455 38.0582 22.6455 38.5C22.6455 38.9418 23.0037 39.3 23.4455 39.3H24.4673C24.7177 39.3 24.9195 39.3833 25.0455 39.4861C25.1699 39.5875 25.2 39.6851 25.2 39.75C25.2 39.8149 25.1699 39.9125 25.0455 40.0139C24.9195 40.1167 24.7177 40.2 24.4673 40.2H23.4455C23.0303 40.2 22.7931 39.9849 22.734 39.8486C22.5583 39.4432 22.0873 39.2569 21.6819 39.4326C21.2765 39.6083 21.0903 40.0794 21.266 40.4848C21.6277 41.3195 22.526 41.8 23.4455 41.8H24.4673C25.5954 41.8 26.8 41.0269 26.8 39.75C26.8 39.2511 26.6161 38.829 26.3247 38.5C26.6161 38.171 26.8 37.749 26.8 37.25C26.8 35.9731 25.5954 35.2 24.4673 35.2H23.4455C22.526 35.2 21.6277 35.6805 21.266 36.5152C21.0903 36.9206 21.2765 37.3917 21.6819 37.5674C22.0873 37.7431 22.5583 37.5569 22.734 37.1515C22.7931 37.0152 23.0303 36.8 23.4455 36.8H24.4673C24.7177 36.8 24.9195 36.8833 25.0455 36.9861Z" fill="black"/>
<path d="M32.0485 36.9807C32.1672 37.0796 32.2 37.1783 32.2 37.25C32.2 37.3257 32.1623 37.4356 32.0217 37.5404C32.0138 37.5464 32.006 37.5524 31.9983 37.5586L28.4983 40.3769C28.234 40.5897 28.1327 40.946 28.2455 41.266C28.3583 41.586 28.6607 41.8 29 41.8H33C33.4418 41.8 33.8 41.4418 33.8 41C33.8 40.5582 33.4418 40.2 33 40.2H31.2691L32.9915 38.8131C33.4579 38.4597 33.8 37.9085 33.8 37.25C33.8 35.9874 32.6275 35.2 31.5 35.2H30.5C29.585 35.2 28.7018 35.6889 28.3489 36.521C28.1763 36.9277 28.3662 37.3973 28.773 37.5698C29.1797 37.7423 29.6493 37.5525 29.8218 37.1457C29.8808 37.0068 30.1088 36.8 30.5 36.8H31.5C31.7368 36.8 31.9282 36.8804 32.0485 36.9807Z" fill="black"/>
<path fill-rule="evenodd" clip-rule="evenodd" d="M29.787 21.4175C31.6547 22.397 33.9628 21.6769 34.9423 19.8092C35.9218 17.9414 35.2017 15.6333 33.334 14.6539C31.4662 13.6744 29.1581 14.3945 28.1787 16.2622C27.1992 18.1299 27.9193 20.438 29.787 21.4175ZM30.7159 19.6463C31.6054 20.1128 32.7046 19.7698 33.1711 18.8803C33.6376 17.9908 33.2946 16.8916 32.4051 16.4251C31.5156 15.9586 30.4164 16.3015 29.9499 17.1911C29.4834 18.0806 29.8263 19.1798 30.7159 19.6463Z" fill="black"/>
</svg>

<svg
  xmlns="http://www.w3.org/2000/svg"
  width="24"
  height="24"
  viewBox="0 0 24 24"
  fill="none"
  stroke="currentColor"
  stroke-width="2"
  stroke-linecap="round"
  stroke-linejoin="round"
>
  <path
    fill-rule="evenodd"
    d="M16.4 40.317a1 1 0 0 0 .844-1.813 16 16 0 0 1-3.208-27.023l.413.533q.175.223.335.432c.419.545.758 1.018.985 1.449.228.434.287.724.268.922-.015.156-.088.38-.45.678l-.747.615c-.59.485-.96 1.1-1.063 1.775-.101.67.076 1.316.432 1.838.714 1.047 2.113 1.577 3.607 1.18q.197-.052.299-.07c.04.066.09.153.162.28l.179.397a3 3 0 0 0-.598.105l-3.502.991a3 3 0 1 0 1.633 5.774l.878-.249 1.032 2.654a3 3 0 0 0 2.525 1.9c3.35.305 6.066-.82 7.844-2.57.867-.852 1.521-1.864 1.89-2.93.354-1.02.526-2.344.034-3.64a3 3 0 0 0-3.123-1.917l-.648.07-.406-1.44a3 3 0 0 0-5.83.223l-.122-.272-.042-.074c-.098-.174-.21-.373-.329-.54a1.86 1.86 0 0 0-.626-.58c-.602-.326-1.264-.179-1.765-.045-.756.201-1.25-.095-1.44-.374a.57.57 0 0 1-.106-.412c.018-.122.093-.314.355-.53l.748-.614c.683-.562 1.095-1.244 1.17-2.036.07-.75-.178-1.449-.49-2.04-.312-.596-.745-1.186-1.168-1.737l-.371-.478-.322-.414a16 16 0 0 1 20.115 2.85 16 16 0 0 1 2.712 17.57 1 1 0 1 0 1.813.845A18 18 0 1 0 16.4 40.317m6.456-20.208a1 1 0 0 1 1.234.691l.635 2.252a1 1 0 0 0 1.069.724l1.487-.16a1 1 0 0 1 1.042.64c.273.72.201 1.536-.054 2.274-.26.751-.737 1.505-1.403 2.16-1.346 1.323-3.476 2.257-6.261 2.004a1 1 0 0 1-.842-.633l-1.361-3.502a1 1 0 0 0-1.204-.6l-1.753.496a1 1 0 0 1-.545-1.924l3.503-.991a1 1 0 0 1 1.204.6l1.53 3.933a1 1 0 0 0 1.023.633c1.118-.103 2.012-.466 2.689-.935a1 1 0 0 0-.6-1.822 1 1 0 0 1-.991-.728l-1.093-3.878a1 1 0 0 1 .691-1.234"
    clip-rule="evenodd"
  />
  <path d="M35.21 36.132a.8.8 0 0 1 1.58-.264l.463 2.785.552-.967a.8.8 0 0 1 1.39 0l.552.967.464-2.785a.8.8 0 0 1 1.578.264l-.833 5a.8.8 0 0 1-1.484.265l-.972-1.701-.972 1.7a.8.8 0 0 1-1.484-.264z" />
  <path d="M25.046 36.986c.124.102.154.2.154.264 0 .065-.03.163-.154.264a.92.92 0 0 1-.579.186h-1.021a.8.8 0 0 0 0 1.6h1.021a.92.92 0 0 1 .579.186c.124.102.154.2.154.264 0 .065-.03.163-.154.264a.92.92 0 0 1-.579.186h-1.021c-.416 0-.653-.215-.712-.351a.8.8 0 1 0-1.468.636c.362.834 1.26 1.315 2.18 1.315h1.021c1.128 0 2.333-.773 2.333-2.05 0-.499-.184-.921-.475-1.25.291-.329.475-.751.475-1.25 0-1.277-1.205-2.05-2.333-2.05h-1.021c-.92 0-1.818.48-2.18 1.315a.8.8 0 0 0 1.468.636c.06-.136.296-.351.711-.351h1.022a.92.92 0 0 1 .579.186" />
  <path d="M32.048 36.98c.12.1.152.198.152.27 0 .076-.038.186-.178.29l-.024.019-3.5 2.818A.8.8 0 0 0 29 41.8h4a.8.8 0 0 0 0-1.6h-1.73l1.722-1.387c.466-.353.808-.905.808-1.563 0-1.263-1.172-2.05-2.3-2.05h-1c-.915 0-1.798.489-2.151 1.321a.8.8 0 1 0 1.473.625c.059-.14.287-.346.678-.346h1a.86.86 0 0 1 .548.18" />
  <path
    fill-rule="evenodd"
    d="M29.787 21.418a3.819 3.819 0 1 0 3.547-6.764 3.819 3.819 0 0 0-3.547 6.764m.929-1.772a1.819 1.819 0 1 0 1.69-3.22 1.819 1.819 0 0 0-1.69 3.22"
    clip-rule="evenodd"
  />
</svg>
